X:1
T:Title
%%score { ( 1 3 ) | ( 2 4 5 ) }
L:1/8
M:3/4
K:C
V:1 treble nm="Grand Piano"
V:3 treble 
V:2 bass 
V:4 bass 
V:5 bass 
V:1
 z2 z2[Q:1/4=94] [CE]>[DF] | [EG]3 [CE] [DF][FA] | [FA] [EG]3 F>E | D3 A G>F |[M:2/4] E4 | %5
[M:1/4] E>[DF] |[M:3/4] [EG]3 [CE] [DF][FA] | [FA] [EG]3 [DF]>E | D3 c [GB]>[^FA] |[M:2/4] G4 | %10
[M:1/4] B>c |[M:3/4] d3 B A>B | [FA] [EG]3 [Ec]>[Fd] | [Ge]3 [Gc] [FB]>[Ec] |[M:2/4] [Gd]4 | %15
[M:1/4] [CE]>[DF] |[M:3/4] [EG]3 [CE] [DF][FA] | [FA] [EG]3 [Gc]>[Ge] | %18
[M:27/32] [Fd]/4-[Fd]/4-[Fd]/4-[Fd]/4-[Fd]/4-[Fd]/4-[Fd]/4-[Fd]/4-[Fd]/-<[Fd]/[Ff]/-<[Ff]/B/4-B/4-B/4-B/4-B/-<B/-[F-Bd-]/[Fd]/4 | %19
[M:2/4] [Ec]4 |[M:1/4] (3:2:2B2 c |[M:3/4] d3- d/4 z/4 z/ (3:2:2B2 d | (3:2:2[Ec]6 [Ec]3 | %23
 [Ge]3- [Ge]/4 z/4 z/ (3:2:2[Gc]2 [Ge] |[M:2/4] [Gd]4 |[M:1/4] (3:2:2[CE]2 [DF] | %26
[M:3/4] [EG]3- [EG]/4 z/4 z/ (3:2:2[Gc]2 [GB] | %27
 (7:8:8[GB]3/4[FA]3/4-[FA]3/2-[FA]3/8[Gc]3/8-[Gc]-[Gc]/8[Ge]3/8 | %28
[M:27/32] d/4-d/4-d/4-d/4-d/4-d/4-d/4-d/4-d/-<d/-[df-]/<f/-[B-f]/4B/4-B/4-B/4-B/-<B/-[F-Bd-]/4[Fd]/ | %29
[M:2/4] [Ec]4 |] %30
V:2
 z2 z2 [C,G,]>[C,G,] | [C,C]3 [C,G,] [C,G,][C,C] | [C,C] [C,C]3 [D,G,D]>[E,G,C] | %3
 [F,A,]3 [F,CF] [G,CE]>[G,D] |[M:2/4] [C,G,C]4 |[M:1/4] [C,G,C]>[C,G,] | %6
[M:3/4] [C,C]3 [C,G,] [C,G,][C,C] | [C,C] [C,C]3 [C,G,]>[C,G,C] | [D,G,B,]3 [D,A,D] [D,D]>[D,C] | %9
[M:2/4] [G,B,]4 |[M:1/4][K:treble] [G,DF]>[G,CE] |[M:3/4] [G,B,F]3 [G,DF] [G,DF]>[G,CF] | %12
 [C,C] [C,C]3 [C,G,]>[C,G,] | [C,C]3 [E,C] [D,G,]>[C,C] |[M:2/4] [G,B,]4 |[M:1/4] [C,G,]>[C,G,] | %16
[M:3/4] [C,C]3 [C,G,] [C,G,][C,C] | [C,C] [C,C]3 [E,C]>[C,C] | %18
[M:27/32] z/4 z/4 z/4 z/4 z/4 z/4 z/4 z/4 z/4 z/4 z/4 z/4 z/4 z/4 z/[K:treble] D/4-D/4-D/4-D/4-D/4-D/4-D/-<D/[K:bass] z/4 | %19
[M:2/4] [C,C]4 |[M:1/4][K:treble] (3:2:2[G,DF]2 [G,CE] |[M:3/4] z2 z [G,DF]- [G,DF]/4 z/4 z/ z | %22
 (3:2:2[C,C]6 [C,C]3 | [C,C]3- [C,C]/4 z/4 z/ (3:2:2[E,C]2 [C,C] |[M:2/4] [G,B,]4 | %25
[M:1/4] (3:2:2[C,G,]2 [C,G,] |[M:3/4] [C,C]3- [C,C]/4 z/4 z/ (3:2:2[E,C]2 [E,C] | %27
 (7:8:8[F,C]3/4[F,C]3/4-[F,C]3/2-[F,C]3/8[E,C]3/8-[E,C]-[E,C]/8[C,C]3/8 | %28
[M:27/32] z/4 z/4 z/4 z/4 z/4 z/4 z/4 z/4 z/4 z/4 z/ D/-<D/D/4-D/4-D/4-D/4-D/-<D/-[G,-B,-D]/4[G,B,]/ | %29
[M:2/4] [C,C]4 |] %30
V:3
 x6 | x6 | x6 | x6 |[M:2/4] x4 |[M:1/4] x2 |[M:3/4] x6 | x6 | x6 |[M:2/4] x4 |[M:1/4] x2 | %11
[M:3/4] x6 | x6 | x6 |[M:2/4] x4 |[M:1/4] x2 |[M:3/4] x6 | x6 | %18
[M:27/32] z/4 z/4 z/4 z/4 z/4 z/4 z/4 z/4 z/4 z/4 z/4 z/4 z/4 z/4 z/ F/4-F/4-F/4-F/4-F/-<F/ z/4 z/ | %19
[M:2/4] x4 |[M:1/4] x2 |[M:3/4] z2 z G- G/4 z/4 z/ z | z2 z2 z z/ [Fd]/- | %23
 [Fd]3/4 z/4 z z [EG]- [EG]/4 z/4 z/ z |[M:2/4] x4 |[M:1/4] x2 | %26
[M:3/4] z2 z [Ec]- [Ec]/4 z/4 z/ z | x6 | %28
[M:27/32] F/4-F/4-F/4-F/4-F/4-F/4-F/4-F/4-F/-<F/F/-<F/F/4-F/4-F/4-F/4-F/-<F/ z/4 z/ |[M:2/4] x4 |] %30
V:4
 x6 | x6 | x6 | x6 |[M:2/4] x4 |[M:1/4] x2 |[M:3/4] x6 | x6 | x6 |[M:2/4] x4 | %10
[M:1/4][K:treble] x2 |[M:3/4] x6 | x6 | x6 |[M:2/4] x4 |[M:1/4] x2 |[M:3/4] x6 | x6 | %18
[M:27/32] [F,A,]/4-[F,A,]/4-[F,A,]/4-[F,A,]/4-[F,A,]/4-[F,A,]/4-[F,A,]/4-[F,A,]/4-[F,A,]/-<[F,A,]/[D,D]/-<[D,D]/[K:treble]G,/4-G,/4-G,/4-G,/4-G,/-<G,/[K:bass][G,B,]3/4 | %19
[M:2/4] x4 |[M:1/4][K:treble] x2 |[M:3/4] [G,B,F]3- [G,B,F]/4 z/4 z/ (3:2:2[G,DF]2 [G,B,F] | %22
 z2 z2 z z/ [C,C]/- | [C,C]3/4 z/4 z z [C,C]- [C,C]/4 z/4 z/ z |[M:2/4] x4 |[M:1/4] x2 | %26
[M:3/4] z2 z [C,C]- [C,C]/4 z/4 z/ z | x6 | %28
[M:27/32] [F,A,]/4-[F,A,]/4-[F,A,]/4-[F,A,]/4-[F,A,]/4-[F,A,]/4-[F,A,]/4-[F,A,]/4-[F,A,]/4-[F,A,]/-<[F,A,]/ z/4 z/ G,/4-G,/4-G,/4-G,/4-G,/-<G,/ z/4 z/ | %29
[M:2/4] x4 |] %30
V:5
 x6 | x6 | x6 | x6 |[M:2/4] x4 |[M:1/4] x2 |[M:3/4] x6 | x6 | x6 |[M:2/4] x4 | %10
[M:1/4][K:treble] x2 |[M:3/4] x6 | x6 | x6 |[M:2/4] x4 |[M:1/4] x2 |[M:3/4] x6 | x6 | %18
[M:27/32] x4[K:treble] x2[K:bass] x3/4 |[M:2/4] x4 |[M:1/4][K:treble] x2 |[M:3/4] x6 | x6 | x6 | %24
[M:2/4] x4 |[M:1/4] x2 |[M:3/4] x6 | x6 | %28
[M:27/32] z/4 z/4 z/4 z/4 z/4 z/4 z/4 z/4 z/4 z/4 z/ D,/4-D,/-<D,/ z/4 z/4 z/4 z/4 z/4 z/4 z/4 z/4 z/ | %29
[M:2/4] x4 |] %30

